X:0732
T:Honble. Miss Elphinston's Strathspey.
M:C
L:1/8
Q:1/4=120
I: :: ||
Z:Jack Campin * www.campin.me.uk * 2009
K:A Mixolydian
(d>e`d>e) (f<a)d2 |(e>f) (g/f/e/d/) (c<e) e2|d>ed>e (fa)d2 |(e<a)(a>^g) a2A2 :|
(g>a)g>e  (f>g)f>d|(ce)   A2        (ce)  A2|B>cB>c  d>ef>b| a<f``e>d   d2d'2:|

